X: 25239
T: Mama's Pet
R: reel
M: 4/4
K: Gmajor
G2FG E2DE|G2BG DGBG|G2FG E2GA|Bded B2AF|
G2FG E2DE|G2BG DGBG|G2FG E2GA|Bded B2Bc||
dBGB d2Bc|dBGB e2dc|dBGB d2Bd|eged B2Bc|
dBGB d2Bd|g2b2 egdB|G3B AGAB|dfgd B2AF||

